X:1
T: Kate and Rose's
M: 4/4
L: 1/8
K: Dm
%
E | \
"Dm"FD (3.D.D.D AD (3.D.D.D | dDDd dcAG |\
FD (3.D.D.D AGFD | "C"EDCD "A7"EFGE ||\
"Dm"FD (3.D.D.D AD (3.D.D.D |
dDDd dcAG |\
"F"F2 cF dFcF | "C"E3 E EDC :|\
[K:Dmix] |: e |\
"D"fd (3.d.d.d fdad | f3 f fede |
"D"fd (3.d.d.d fdad | "C"cBAB "Am"cBAe ||\
"D"fd (3.d.d.d fdad | f3 f fedB |\
"C"c2 gc acgc | "G"B3 B BAG :|
%["transition" "G"B3z"E7"z4 |]
